X:1
T:Title
L:1/8
Q:1/4=120
M:2/2
K:C
V:1 treble nm="Midi_1"
V:1
 c3 c c2 C2 | E2 F2"^Descant to Neander - Come, ye faithful" G2 G2 | A2 B2 c2 e2 | %3
w: Laud and hon- our|to the Fa- ther,|laud and hon- our|
 f2 d2"^Andrew Sims" e4 | c3 c c2 C2 | E2 F2 G2 G2 | A2 B2 c2 e2 | f2 g2 e4 | e3 e e2 e2 | %9
w: to the Son,|laud and hon- our|to the Spi- rit,|ev- er Three and|ev- er One.|con- sub- stan- tial,|
 e2 dc B4 | c2 d2 e2 e2 |"^Written to fit harmony by Noel Rawsthorne\n21 May 2019" d2 ef e4 |] %12
w: co- e- ter- nal,|while un- end- ing|a- ges * run.|

